X:1
T:Jenny Lind Polka
C:Anton Wallerstein
L:1/8
M:2/4
I:linebreak $
K:D
V:1 treble
V:1
 D/E/ | "D"FA "G"GB |"D" Af f/e/f |"A7" Ae e/d/e |"D" Ad d/c/d |$
 "D"FA "G"GB | "D"Af f/e/f | "A7"Ae e/d/e | df d ::$
  z | "G"dB B/c/d/B/ | "D"AF F>F | "A7"GE E/F/G/E/ | "D"FD D2 |$
 "G"dB B/c/d/B/ |"D" AF F2 | "A7"GE C/A,/B,/C/ |  "D"DF D z :|
